X:1
T:Title
L:1/8
Q:1/4=90
M:6/8
K:F
V:1 treble nm="Church Organ, Staff"
V:1
 CFA ccd | ccB AAG | FFA ccd | ccB A .G2 | FFA ccd | ccB A G2- | GGA G c2- | c=BA B c2 |] %8
w: By~French~Flanders~Melody * * * * *||||||||

